img/icons/filter.svg

<svg viewBox="0 0 16 14" fill="none" xmlns="http://www.w3.org/2000/svg">
<path d="M6.60845 10.8274H1.35785" stroke="#009643" stroke-width="1.5" stroke-linecap="round" stroke-linejoin="round"/>
<path d="M8.95038 2.75023H14.201" stroke="#009643" stroke-width="1.5" stroke-linecap="round" stroke-linejoin="round"/>
<path fill-rule="evenodd" clip-rule="evenodd" d="M5.27189 2.70521C5.27189 1.6255 4.39009 0.75 3.3026 0.75C2.21511 0.75 1.33331 1.6255 1.33331 2.70521C1.33331 3.78492 2.21511 4.66042 3.3026 4.66042C4.39009 4.66042 5.27189 3.78492 5.27189 2.70521Z" stroke="#009643" stroke-width="1.5" stroke-linecap="round" stroke-linejoin="round"/>
<path fill-rule="evenodd" clip-rule="evenodd" d="M14.6667 10.7948C14.6667 9.7151 13.7855 8.8396 12.6981 8.8396C11.6099 8.8396 10.7281 9.7151 10.7281 10.7948C10.7281 11.8745 11.6099 12.75 12.6981 12.75C13.7855 12.75 14.6667 11.8745 14.6667 10.7948Z" stroke="#009643" stroke-width="1.5" stroke-linecap="round" stroke-linejoin="round"/>
</svg>

<svg viewBox="0 0 16 14" fill="none" xmlns="http://www.w3.org/2000/svg"><path d="M6.608 10.827h-5.25M8.95 2.75h5.251" stroke="#009643" stroke-width="1.5" stroke-linecap="round" stroke-linejoin="round"/><path clip-rule="evenodd" d="M5.272 2.705c0-1.08-.882-1.955-1.97-1.955-1.087 0-1.969.875-1.969 1.955s.882 1.955 1.97 1.955a1.962 1.962 0 0 0 1.969-1.955Zm9.395 8.09c0-1.08-.881-1.955-1.969-1.955s-1.97.875-1.97 1.955.882 1.955 1.97 1.955a1.962 1.962 0 0 0 1.969-1.955Z" stroke="#009643" stroke-width="1.5" stroke-linecap="round" stroke-linejoin="round"/></svg>
